assets/icons/Mail.svg

<svg fill="none" height="13" viewBox="0 0 18 13" width="18" xmlns="http://www.w3.org/2000/svg"><path clip-rule="evenodd" d="m15.3576 3.39368c.1639.23007.1121.55079-.1172.71586l-5.43164 3.92908c-.23604.17191-.51455.25743-.7922.25743-.27596 0-.55276-.08467-.78881-.25401l-5.46734-3.93165c-.2284-.16421-.2819-.48493-.11887-.71585.16388-.23092.48229-.2848.71069-.11888l5.46649 3.93079c.11802.08467.2768.08552.39568-.00086l5.4325-3.92908c.2284-.16677.5468-.11204.7107.11717zm1.6243 7.38262c0 .6603-.534 1.1982-1.1887 1.1982h-13.58555c-.6555 0-1.18873-.5379-1.18873-1.1982v-8.55262c0-.66026.53323-1.19736 1.18873-1.19736h13.58555c.6547 0 1.1887.5371 1.1887 1.19736zm-1.1887-10.7763h-13.58555c-1.217603 0-2.20765.998092-2.20765 2.22368v8.55262c0 1.2265.990047 2.2237 2.20765 2.2237h13.58555c1.2168 0 2.2068-.9972 2.2068-2.2237v-8.55262c0-1.225588-.99-2.22368-2.2068-2.22368z" fill="#757575" fill-rule="evenodd"/></svg>

<svg width="18" height="13" viewBox="0 0 18 13" fill="none" xmlns="http://www.w3.org/2000/svg">
<path fill-rule="evenodd" clip-rule="evenodd" d="M15.3576 3.39368C15.5215 3.62375 15.4697 3.94447 15.2404 4.10954L9.80876 8.03862C9.57272 8.21053 9.29421 8.29605 9.01656 8.29605C8.7406 8.29605 8.4638 8.21138 8.22775 8.04204L2.76041 4.11039C2.53201 3.94618 2.47851 3.62546 2.64154 3.39454C2.80542 3.16362 3.12383 3.10974 3.35223 3.27566L8.81872 7.20645C8.93674 7.29112 9.09552 7.29197 9.2144 7.20559L14.6469 3.27651C14.8753 3.10974 15.1937 3.16447 15.3576 3.39368ZM16.9819 10.7763C16.9819 11.4366 16.4479 11.9745 15.7932 11.9745H2.20765C1.55215 11.9745 1.01892 11.4366 1.01892 10.7763V2.22368C1.01892 1.56342 1.55215 1.02632 2.20765 1.02632H15.7932C16.4479 1.02632 16.9819 1.56342 16.9819 2.22368V10.7763ZM15.7932 0H2.20765C0.990047 0 0 0.998092 0 2.22368V10.7763C0 12.0028 0.990047 13 2.20765 13H15.7932C17.01 13 18 12.0028 18 10.7763V2.22368C18 0.998092 17.01 0 15.7932 0Z" fill="#757575"/>
</svg>
